X:170
T:What Pain I've Endured
R:slip jig
S:Old Blind Dogs
N:No.153
O:Scottish
M:9/8
L:1/8
K:G
|eBB BAG FDF|E2F GFG B2B|eBB BAG FDF|EFd BAF E2E:|
Bee Bgg fed|Bee Bgg f2e|1 Bee Bgg fed|
edB ABd e2e:|2 Bef g2g fed|edB ABd e2e|]

